svg/icon/dent.svg

<svg xmlns="http://www.w3.org/2000/svg" xmlns:xlink="http://www.w3.org/1999/xlink" width="32" height="32" viewBox="0 0 32 32">
  <defs>
    <linearGradient id="dent-c" x1="50%" x2="50%" y1="0%" y2="100%">
      <stop offset="0%" stop-color="#FFF" stop-opacity=".5"/>
      <stop offset="100%" stop-opacity=".5"/>
    </linearGradient>
    <circle id="dent-b" cx="16" cy="15" r="15"/>
    <filter id="dent-a" width="111.7%" height="111.7%" x="-5.8%" y="-4.2%" filterUnits="objectBoundingBox">
      <feOffset dy=".5" in="SourceAlpha" result="shadowOffsetOuter1"/>
      <feGaussianBlur in="shadowOffsetOuter1" result="shadowBlurOuter1" stdDeviation=".5"/>
      <feComposite in="shadowBlurOuter1" in2="SourceAlpha" operator="out" result="shadowBlurOuter1"/>
      <feColorMatrix in="shadowBlurOuter1" values="0 0 0 0 0   0 0 0 0 0   0 0 0 0 0  0 0 0 0.199473505 0"/>
    </filter>
    <path id="dent-e" d="M25.082305,20.1494024 C24.6633463,20.8620797 23.7353717,21.1062709 23.0096468,20.6948446 L18.2313406,17.9856016 L18.2313406,16.2651315 L19.7486599,15.4048526 L24.5269661,18.1139203 C25.252691,18.5254343 25.5012636,19.4367251 25.082305,20.1494024 Z M17.517308,23.8087649 C17.517308,24.6317052 16.8379952,25.2988048 15.9999887,25.2988048 C15.1620714,25.2988048 14.4826694,24.6317052 14.4826694,23.8087649 L14.4826694,18.3905418 L15.9999887,17.5301753 L17.517308,18.3905418 L17.517308,23.8087649 Z M8.99041978,20.6948446 C8.26469488,21.1062709 7.33672025,20.8620797 6.91767236,20.1494024 C6.49871372,19.4367251 6.74737558,18.5254343 7.47310048,18.1139203 L12.2513175,15.4048526 L13.7686368,16.2651315 L13.7686368,17.9856016 L8.99041978,20.6948446 Z M7.47310048,11.8860797 C6.74737558,11.4745657 6.49871372,10.5632749 6.91767236,9.85059761 C7.33672025,9.13792032 8.26469488,8.89372908 8.99041978,9.30515538 L13.7686368,12.0143984 L13.7686368,13.7348685 L12.2513175,14.5951474 L7.47310048,11.8860797 Z M14.4826694,6.19123506 C14.4826694,5.36829482 15.1620714,4.70119522 15.9999887,4.70119522 C16.8379952,4.70119522 17.517308,5.36829482 17.517308,6.19123506 L17.517308,11.6094582 L15.9999887,12.4697371 L14.4826694,11.6094582 L14.4826694,6.19123506 Z M18.2313406,14.5445737 L19.0346273,15 L18.2313406,15.4554263 L18.2313406,14.5445737 Z M16.7140213,12.8745896 L17.517308,12.4191633 L17.517308,13.3300159 L16.7140213,12.8745896 Z M14.4826694,13.3300159 L14.4826694,12.4191633 L15.2859561,12.8745896 L14.4826694,13.3300159 Z M13.7686368,15.4554263 L12.9653501,15 L13.7686368,14.5445737 L13.7686368,15.4554263 Z M15.2859561,17.1254104 L14.4826694,17.5808367 L14.4826694,16.6699841 L15.2859561,17.1254104 Z M17.517308,16.6699841 L17.517308,17.5808367 L16.7140213,17.1254104 L17.517308,16.6699841 Z M15.9999887,16.7205578 L14.4826694,15.8601912 L14.4826694,14.1397211 L15.9999887,13.2794422 L17.517308,14.1397211 L17.517308,15.8601912 L15.9999887,16.7205578 Z M23.0096468,9.30515538 C23.7353717,8.89372908 24.6633463,9.13792032 25.082305,9.85059761 C25.5012636,10.5632749 25.252691,11.4745657 24.5269661,11.8860797 L19.7486599,14.5951474 L18.2313406,13.7348685 L18.2313406,12.0143984 L23.0096468,9.30515538 Z M24.8839824,17.5067729 L20.4626925,15 L24.8839824,12.4932271 C25.9511934,11.8881833 26.3168674,10.5481116 25.7006572,9.5 C25.0845363,8.45188845 23.7198415,8.09287649 22.6526305,8.69800797 L18.2313406,11.2046932 L18.2313406,6.19123506 C18.2313406,4.98105976 17.2323197,4 15.9999887,4 C14.7676576,4 13.7686368,4.98105976 13.7686368,6.19123506 L13.7686368,11.2046932 L9.34743608,8.69800797 C8.28022509,8.09287649 6.91544101,8.45188845 6.29932012,9.5 C5.68310997,10.5481116 6.04887318,11.8881833 7.11608417,12.4932271 L11.5372848,15 L7.11608417,17.5067729 C6.04887318,18.1118167 5.68310997,19.4519761 6.29932012,20.5 C6.91544101,21.5480239 8.28022509,21.9072112 9.34743608,21.301992 L13.7686368,18.7953068 L13.7686368,23.8087649 C13.7686368,25.0189402 14.7676576,26 15.9999887,26 C17.2323197,26 18.2313406,25.0189402 18.2313406,23.8087649 L18.2313406,18.7953068 L22.6526305,21.301992 C23.7198415,21.9072112 25.0845363,21.5480239 25.7006572,20.5 C26.3168674,19.4519761 25.9511934,18.1118167 24.8839824,17.5067729 Z"/>
    <filter id="dent-d" width="117.5%" height="115.9%" x="-8.8%" y="-5.7%" filterUnits="objectBoundingBox">
      <feOffset dy=".5" in="SourceAlpha" result="shadowOffsetOuter1"/>
      <feGaussianBlur in="shadowOffsetOuter1" result="shadowBlurOuter1" stdDeviation=".5"/>
      <feColorMatrix in="shadowBlurOuter1" values="0 0 0 0 0   0 0 0 0 0   0 0 0 0 0  0 0 0 0.204257246 0"/>
    </filter>
  </defs>
  <g fill="none" fill-rule="evenodd">
    <use fill="#000" filter="url(#dent-a)" xlink:href="#dent-b"/>
    <use fill="#666" xlink:href="#dent-b"/>
    <use fill="url(#dent-c)" style="mix-blend-mode:soft-light" xlink:href="#dent-b"/>
    <circle cx="16" cy="15" r="14.5" stroke="#000" stroke-opacity=".097"/>
    <g>
      <use fill="#000" filter="url(#dent-d)" xlink:href="#dent-e"/>
      <use fill="#FFF" xlink:href="#dent-e"/>
    </g>
  </g>
</svg>

<svg height="32" width="32" xmlns="http://www.w3.org/2000/svg" xmlns:xlink="http://www.w3.org/1999/xlink"><defs><linearGradient id="c" x1="50%" x2="50%" y1="0%" y2="100%"><stop offset="0" stop-color="#fff" stop-opacity=".5"/><stop offset="1" stop-opacity=".5"/></linearGradient><circle id="b" cx="16" cy="15" r="15"/><filter id="a" height="111.7%" width="111.7%" x="-5.8%" y="-4.2%"><feOffset dy=".5" in="SourceAlpha" result="shadowOffsetOuter1"/><feGaussianBlur in="shadowOffsetOuter1" result="shadowBlurOuter1" stdDeviation=".5"/><feComposite in="shadowBlurOuter1" in2="SourceAlpha" operator="out" result="shadowBlurOuter1"/><feColorMatrix in="shadowBlurOuter1" values="0 0 0 0 0 0 0 0 0 0 0 0 0 0 0 0 0 0 0.199473505 0"/></filter><path id="e" d="M25.082 20.15a1.533 1.533 0 0 1-2.072.545l-4.779-2.71v-1.72l1.518-.86 4.778 2.709c.726.411.974 1.323.555 2.035zm-7.565 3.659c0 .823-.679 1.49-1.517 1.49-.838 0-1.517-.667-1.517-1.49V18.39L16 17.53l1.517.86zM8.99 20.695a1.533 1.533 0 0 1-2.072-.546 1.476 1.476 0 0 1 .555-2.035l4.778-2.71 1.518.861v1.72zm-1.517-8.809a1.476 1.476 0 0 1-.555-2.035 1.533 1.533 0 0 1 2.072-.546l4.779 2.71v1.72l-1.518.86zm7.01-5.695c0-.823.68-1.49 1.517-1.49.838 0 1.517.667 1.517 1.49v5.418L16 12.47l-1.517-.86zm3.748 8.354l.804.455-.804.455zm-1.517-1.67l.803-.456v.911zm-2.231.455v-.91l.803.455zm-.714 2.125L12.965 15l.804-.455zm1.517 1.67l-.803.456v-.911zm2.231-.455v.91l-.803-.455zM16 16.72l-1.517-.86v-1.72L16 13.28l1.517.86v1.72zm7.01-7.415a1.533 1.533 0 0 1 2.072.546c.42.712.17 1.624-.555 2.035l-4.778 2.71-1.518-.861v-1.72zm1.874 8.202L20.463 15l4.421-2.507a2.17 2.17 0 0 0 .817-2.993c-.616-1.048-1.981-1.407-3.048-.802l-4.422 2.507V6.19C18.231 4.981 17.232 4 16 4c-1.232 0-2.231.981-2.231 2.191v5.014L9.347 8.698C8.28 8.093 6.915 8.452 6.3 9.5a2.17 2.17 0 0 0 .817 2.993L11.537 15l-4.42 2.507a2.17 2.17 0 0 0-.818 2.993c.616 1.048 1.981 1.407 3.048.802l4.422-2.507v5.014c0 1.21.999 2.191 2.231 2.191 1.232 0 2.231-.981 2.231-2.191v-5.014l4.422 2.507c1.067.605 2.432.246 3.048-.802a2.17 2.17 0 0 0-.817-2.993z"/><filter id="d" height="115.9%" width="117.5%" x="-8.8%" y="-5.7%"><feOffset dy=".5" in="SourceAlpha" result="shadowOffsetOuter1"/><feGaussianBlur in="shadowOffsetOuter1" result="shadowBlurOuter1" stdDeviation=".5"/><feColorMatrix in="shadowBlurOuter1" values="0 0 0 0 0 0 0 0 0 0 0 0 0 0 0 0 0 0 0.204257246 0"/></filter></defs><g fill="none" fill-rule="evenodd"><use fill="#000" filter="url(#a)" xlink:href="#b"/><use fill="#666" xlink:href="#b"/><use fill="url(#c)" xlink:href="#b"/><circle cx="16" cy="15" r="14.5" stroke="#000" stroke-opacity=".097"/><use fill="#000" filter="url(#d)" xlink:href="#e"/><use fill="#fff" xlink:href="#e"/></g></svg>
